X:1
T:Johnny Todd
M:2/4
L:1/8
K:C
 CE| GG AA| GE CE| G3/2 G/2 FE| D4-| D2 GE| C3/2 E/2 DC| B, G,C E|\
 GD F/2F/2 E| C4-| C2||
